src/app/assets/ServiceTypes/HAH - Food Preparation.svg

<svg id="Layer_1" data-name="Layer 1" xmlns="http://www.w3.org/2000/svg" viewBox="0 0 90 90"><defs><style>.cls-1{fill:#e9d9f9;}.cls-2{fill:none;stroke:#7a329f;stroke-linecap:round;stroke-linejoin:round;stroke-width:2px;}</style></defs><title>HAH - Food Preparation</title><path class="cls-1" d="M8.83,61.67V83.94H22.19V61.67Zm8.15,19a4,4,0,1,1,4-4A4,4,0,0,1,17,80.63Z"/><path class="cls-1" d="M6.36,48.32H87.5a0,0,0,0,1,0,0v1a5.57,5.57,0,0,1-5.57,5.57h-70a5.57,5.57,0,0,1-5.57-5.57v-1a0,0,0,0,1,0,0Z"/><polyline class="cls-2" points="8.84 59 25.46 59 25.46 83.94 8.84 83.94"/><path class="cls-2" d="M25.46,68.3v9.4H59.6a5.89,5.89,0,0,0,4.43-2L78.66,60.32c1-1.18,1.39-1.66,1.23-3.25a2.12,2.12,0,0,0-3.58-1.25L62.67,65.55a1.42,1.42,0,0,1-1,.38H41.93"/><path class="cls-2" d="M32.46,55.24a3.07,3.07,0,0,1,1.42-.34H47.81A3.13,3.13,0,0,1,50.94,58h0a3.13,3.13,0,0,1-3.13,3.13H40.19"/><path class="cls-2" d="M56,65.93H40.58a2.41,2.41,0,0,1-2.41-2.41h0a2.41,2.41,0,0,1,2.41-2.4h7.23"/><line class="cls-2" x1="25.46" y1="61.08" x2="31.82" y2="55.55"/><circle class="cls-2" cx="16.98" cy="76.63" r="2.82"/><path class="cls-2" d="M2.5,45.94h85a0,0,0,0,1,0,0v1.42a7.57,7.57,0,0,1-7.57,7.57H10.07A7.57,7.57,0,0,1,2.5,47.36V45.94A0,0,0,0,1,2.5,45.94Z"/><path class="cls-2" d="M28.49,13.62A34.87,34.87,0,0,1,45,9.73c20,0,36.27,15.93,36.27,35.59"/><path class="cls-2" d="M19.87,19.65A36.91,36.91,0,0,1,24.51,16"/><path class="cls-2" d="M8.73,45.32A35,35,0,0,1,16.59,23.2"/><ellipse class="cls-2" cx="45" cy="6.49" rx="3.1" ry="3.06"/></svg>

<?xml version="1.0" encoding="utf-8"?>
<!-- Generator: Adobe Illustrator 21.1.0, SVG Export Plug-In . SVG Version: 6.00 Build 0)  -->
<svg version="1.1" id="Layer_1" xmlns="http://www.w3.org/2000/svg" xmlns:xlink="http://www.w3.org/1999/xlink" x="0px" y="0px"
	 viewBox="0 0 90 90" style="enable-background:new 0 0 90 90;" xml:space="preserve">
<style type="text/css">
	.st0{fill:#E1F1FB;}
	.st1{fill:none;stroke:#1E3D5C;stroke-width:2;stroke-linecap:round;stroke-linejoin:round;}
</style>
<title>HAH - Food Preparation</title>
<path class="st0" d="M8.8,61.7V84h13.4V61.7H8.8z M17,80.7c-2.2,0-4-1.8-4-4s1.8-4,4-4s4,1.8,4,4C21,78.9,19.2,80.6,17,80.7L17,80.7
	z"/>
<path class="st0" d="M6.4,48.3h81.1l0,0v1c0,3.1-2.5,5.6-5.6,5.6h-70c-3.1,0-5.6-2.5-5.6-5.6L6.4,48.3L6.4,48.3z"/>
<polyline class="st1" points="8.8,59 25.5,59 25.5,83.9 8.8,83.9 "/>
<path class="st1" d="M25.5,68.3v9.4h34.1c1.7,0,3.3-0.7,4.4-2l14.6-15.4c1-1.2,1.4-1.7,1.2-3.3c-0.1-1.2-1.2-2-2.4-1.8
	c-0.5,0.1-0.9,0.3-1.2,0.6l-13.6,9.7c-0.3,0.3-0.6,0.4-1,0.4H41.9"/>
<path class="st1" d="M32.5,55.2c0.4-0.2,0.9-0.3,1.4-0.3h13.9c1.7,0,3.1,1.4,3.1,3.1l0,0c0,1.7-1.4,3.1-3.1,3.1l0,0h-7.6"/>
<path class="st1" d="M56,65.9H40.6c-1.3,0-2.4-1.1-2.4-2.4l0,0c0-1.3,1.1-2.4,2.4-2.4h7.2"/>
<line class="st1" x1="25.5" y1="61.1" x2="31.8" y2="55.5"/>
<circle class="st1" cx="17" cy="76.6" r="2.8"/>
<path class="st1" d="M2.5,45.9h85l0,0v1.4c0,4.2-3.4,7.6-7.6,7.6H10.1c-4.2,0-7.6-3.4-7.6-7.6L2.5,45.9L2.5,45.9z"/>
<path class="st1" d="M28.5,13.6c5.1-2.6,10.8-4,16.5-3.9c20,0,36.3,15.9,36.3,35.6"/>
<path class="st1" d="M19.9,19.6c1.4-1.3,3-2.6,4.6-3.6"/>
<path class="st1" d="M8.7,45.3c0-8.1,2.8-15.9,7.9-22.1"/>
<ellipse class="st1" cx="45" cy="6.5" rx="3.1" ry="3.1"/>
</svg>
